layouts/icon-pack/weapon_crossbow.svg

<?xml version="1.0" encoding="UTF-8"?>
<svg width="1200pt" height="1200pt" version="1.1" viewBox="0 0 1200 1200" xmlns="http://www.w3.org/2000/svg">
 <g fill="#fff">
  <path d="m126.02 1129.4c30.539 4.3633 61.348-5.9102 83.156-27.727l42.352-42.328c15.641-15.301 25.902-35.258 29.25-56.883 2.9531-21.059 12.688-40.582 27.727-55.617l282.91-282.87c33.199-33.246 71.172-61.352 112.66-83.391 30.047-16.238 61.203-30.336 93.234-42.188 21.98-7.9062 41.926-20.594 58.406-37.148l137.37-137.37c6.543-6.5195 10.223-15.375 10.223-24.609 0-9.2344-3.6797-18.09-10.223-24.609l-107.81-107.81c-6.5195-6.543-15.375-10.223-24.609-10.223s-18.09 3.6797-24.609 10.223l-137.95 137.95c-16.496 16.645-29.102 36.734-36.914 58.828-11.828 31.801-25.844 62.742-41.953 92.602-22 41.355-50.043 79.203-83.203 112.29l-281.44 281.41c-15.305 15.633-35.262 25.891-56.883 29.227-21.016 2.9727-40.5 12.684-55.523 27.68l-43.898 43.945c-21.816 21.809-32.09 52.617-27.727 83.156 2.0039 13.996 8.4922 26.965 18.492 36.961 9.9961 10 22.965 16.488 36.961 18.492z"/>
  <path d="m675.63 257.81c5.6797 3.6367 12.434 5.2188 19.141 4.4922 6.7031-0.73047 12.961-3.7305 17.727-8.5l69.07-69.07c5.6602-5.6367 8.4336-13.555 7.5195-21.492-0.91406-7.9336-5.4141-15.016-12.207-19.219-57.445-35.297-196.88-105.7-335.16-58.852-25.531 8.8008-49.484 21.645-70.945 38.039-26.602 20.109-74.531 57.117-117.38 94.266-37.055 32.156-87.914 44.531-135.05 30.867-4.2656-1.2188-8.5469-2.6641-12.844-4.3359-5.4375-2.1445-11.527-1.8906-16.766 0.69922-5.2383 2.5898-9.1367 7.2773-10.734 12.898-1.5977 5.6211-0.74219 11.656 2.3516 16.613 10.855 17.852 24.93 33.531 41.508 46.242 20.613 15.629 34.719 38.324 39.609 63.727l77.742 382.22c1.8359 8.4766 8.0234 15.352 16.258 18.07 8.2383 2.7188 17.301 0.87891 23.82-4.8398 6.5234-5.7148 9.5391-14.457 7.9219-22.98l-84.375-414.26c24.66-3.3242 47.637-14.375 65.625-31.57 54.633-51.539 216.42-175.83 407.16-53.016z"/>
  <path d="m1076.8 829.29c16.398-21.457 29.242-45.41 38.039-70.945 46.875-138.28-23.438-277.78-58.852-335.16-4.2031-6.793-11.285-11.293-19.219-12.207-7.9375-0.91406-15.855 1.8594-21.492 7.5195l-69.07 69c-4.7812 4.7969-7.7695 11.086-8.4766 17.82-0.70312 6.7344 0.92578 13.508 4.6094 19.188 122.67 190.69-1.6172 352.48-53.109 406.95-17.195 17.988-28.246 40.965-31.57 65.625l-414.26-84.375c-8.5859-1.75-17.457 1.2148-23.266 7.7773-5.8086 6.5586-7.6758 15.723-4.8984 24.035 2.7773 8.3086 9.7812 14.508 18.367 16.258l382.03 77.742c25.469 4.8516 48.234 18.961 63.914 39.609 12.703 16.594 28.383 30.68 46.242 41.531 16.734 10.523 37.5-6.3047 30.469-24.727-1.4766-3.7734-2.7656-7.5469-3.9141-11.297-14.102-47.66-2.7852-99.219 29.977-136.59 37.219-42.938 74.297-91.055 94.477-117.75z"/>
 </g>
</svg>

<?xml version="1.0" encoding="UTF-8" standalone="no"?>
<!DOCTYPE svg PUBLIC "-//W3C//DTD SVG 1.1//EN" "http://www.w3.org/Graphics/SVG/1.1/DTD/svg11.dtd">
<svg width="100%" height="100%" viewBox="0 0 512 512" version="1.1" xmlns="http://www.w3.org/2000/svg" xmlns:xlink="http://www.w3.org/1999/xlink" xml:space="preserve" xmlns:serif="http://www.serif.com/" style="fill-rule:evenodd;clip-rule:evenodd;stroke-linejoin:round;stroke-miterlimit:2;">
    <g transform="matrix(1,0,0,1,-69.5801,-69.5894)">
        <g transform="matrix(0.482625,0,0,0.482625,35.999,36.0038)">
            <path d="M126.02,1129.4C156.559,1133.76 187.368,1123.49 209.176,1101.67L251.528,1059.35C267.169,1044.04 277.43,1024.09 280.778,1002.46C283.731,981.403 293.466,961.88 308.505,946.845L591.415,663.975C624.614,630.729 662.587,602.623 704.075,580.584C734.122,564.346 765.278,550.248 797.309,538.396C819.289,530.49 839.235,517.802 855.715,501.248L993.085,363.878C999.628,357.359 1003.31,348.503 1003.31,339.269C1003.31,330.035 999.628,321.179 993.085,314.66L885.275,206.85C878.755,200.307 869.9,196.627 860.666,196.627C851.432,196.627 842.576,200.307 836.057,206.85L698.107,344.8C681.611,361.445 669.005,381.534 661.193,403.628C649.365,435.429 635.349,466.37 619.24,496.23C597.24,537.585 569.197,575.433 536.037,608.52L254.597,889.93C239.292,905.563 219.335,915.821 197.714,919.157C176.698,922.13 157.214,931.841 142.191,946.837L98.293,990.782C76.477,1012.59 66.203,1043.4 70.566,1073.94C72.57,1087.93 79.058,1100.9 89.058,1110.9C99.054,1120.9 112.023,1127.39 126.019,1129.39L126.02,1129.4Z" style="fill:white;fill-rule:nonzero;"/>
            <path d="M675.63,257.81C681.31,261.447 688.064,263.029 694.771,262.302C701.474,261.572 707.732,258.572 712.498,253.802L781.568,184.732C787.228,179.096 790.002,171.177 789.088,163.24C788.173,155.307 783.673,148.224 776.881,144.021C719.435,108.724 580.001,38.321 441.72,85.169C416.189,93.97 392.236,106.814 370.775,123.208C344.174,143.317 296.244,180.325 253.395,217.474C216.34,249.63 165.481,262.005 118.345,248.341C114.08,247.122 109.799,245.677 105.501,244.005C100.064,241.861 93.974,242.115 88.735,244.705C83.497,247.294 79.599,251.982 78.001,257.603C76.404,263.224 77.259,269.259 80.353,274.216C91.208,292.068 105.283,307.747 121.861,320.458C142.474,336.087 156.58,358.782 161.47,384.185L239.212,766.405C241.048,774.881 247.236,781.757 255.47,784.475C263.708,787.193 272.771,785.353 279.29,779.635C285.814,773.92 288.829,765.178 287.212,756.655L202.837,342.395C227.497,339.071 250.474,328.02 268.462,310.825C323.095,259.286 484.882,134.995 675.622,257.809L675.63,257.81Z" style="fill:white;fill-rule:nonzero;"/>
            <path d="M1076.8,829.29C1093.2,807.833 1106.04,783.88 1114.84,758.345C1161.71,620.065 1091.4,480.565 1055.99,423.185C1051.78,416.392 1044.7,411.892 1036.77,410.978C1028.83,410.064 1020.91,412.837 1015.28,418.498L946.206,487.498C941.425,492.294 938.436,498.584 937.729,505.318C937.026,512.052 938.655,518.826 942.339,524.506C1065.01,715.196 940.722,876.986 889.23,931.456C872.035,949.444 860.984,972.421 857.66,997.081L443.4,912.706C434.814,910.956 425.943,913.92 420.134,920.483C414.325,927.041 412.458,936.206 415.235,944.518C418.013,952.826 425.017,959.026 433.602,960.776L815.632,1038.52C841.101,1043.37 863.866,1057.48 879.546,1078.13C892.249,1094.72 907.929,1108.81 925.788,1119.66C942.522,1130.18 963.288,1113.35 956.257,1094.93C954.781,1091.16 953.492,1087.38 952.343,1083.63C938.241,1035.97 949.558,984.415 982.32,947.044C1019.54,904.106 1056.62,855.989 1076.8,829.294L1076.8,829.29Z" style="fill:white;fill-rule:nonzero;"/>
        </g>
    </g>
</svg>
